X: 36501
T: Serendipity
R: slip jig
M: 9/8
K: Eminor
EBe BA|Bfd B^A|AEE cA|BAG FG|
EBe BA|Bfd B^A|AEE cA|Bag fg|
eBE BA|Bfd B^A|AEE cA|BAG FG|
EBe BA|Bfd B^A|AEE cA|BAG FG|
|:B,DE GF|D^CD GF|EAA cA|Bc^c d^d|
ede gf|d2e fa|gfe dA|1 B^A=A FD:|2 BAG FG||

